X: 42810
T: Who 'Ceithir's?
R: reel
M: 4/4
K: Emajor
|:c/c/c gc fgeg|c/c/c gc fgeg|f/f/f af gaf2-|fgaf gaef|
c/c/c gc fgeg|c/c/c gc fgeg|a/a/a ec Aece|ffdB Bfdf:|
GceG ce2d-|dffg edcB|Gcce ecGe|F/F/F B/B/B d/d/d ff|
GceG cece|dffg edcB|Gcce ecGe|FBdf Bdfg|
c3e gbge|B3d faaf|e2cA Aece|f2dB Bdfa|
g3e agfe|d2fd agfd|e2cA Aece|f2dB Bfdf||

